storage/app/icons/phosphoricons/bold/currency-cny-bold.svg

<svg xmlns="http://www.w3.org/2000/svg" fill="currentColor" viewBox="0 0 256 256"><path d="M52 56a12 12 0 0 1 12-12h128a12 12 0 0 1 0 24H64a12 12 0 0 1-12-12m164 100a12 12 0 0 0-12 12v12h-28a12 12 0 0 1-12-12v-44h44a12 12 0 0 0 0-24H48a12 12 0 0 0 0 24h44v4a52.06 52.06 0 0 1-52 52 12 12 0 0 0 0 24 76.08 76.08 0 0 0 76-76v-4h24v44a36 36 0 0 0 36 36h40a12 12 0 0 0 12-12v-24a12 12 0 0 0-12-12"/></svg>

<svg xmlns="http://www.w3.org/2000/svg" viewBox="0 0 256 256" fill="currentColor"><path d="M52,56A12,12,0,0,1,64,44H192a12,12,0,0,1,0,24H64A12,12,0,0,1,52,56ZM216,156a12,12,0,0,0-12,12v12H176a12,12,0,0,1-12-12V124h44a12,12,0,0,0,0-24H48a12,12,0,0,0,0,24H92v4a52.06,52.06,0,0,1-52,52,12,12,0,0,0,0,24,76.08,76.08,0,0,0,76-76v-4h24v44a36,36,0,0,0,36,36h40a12,12,0,0,0,12-12V168A12,12,0,0,0,216,156Z"/></svg>
